X: 24
T: String Quartet No. 6 in B\b Major, Op. 18, No. 6 mvt 4
C: Ludwig van Beethoven
%%abc-version 2.0
%%abcx-abcm2ps-target-version 5.9.1 (29 Sep 2008)
%%abc-creator hum2abc beta
%%abcx-conversion-date 2021/01/27 10:01:15
%%abc-edited-by Craig Stuart Sapp
%%abcx-initial-encoding-date 2006/02/13/
%%gracespace 0 6 6
%%humdrum-veritas 2524060248
%%humdrum-veritas-data 4014637173
%%linebreak <none>
%%barnumbers 0
L: 1/4
M: 2/4
N: Derived from quartet06-4a.krn
Q: "La Malinconia. Adagio" 1/8=63
%%staves [1 2 3 4]
V: 1 clef=treble
V: 2 clef=treble
V: 3 clef=alto
V: 4 clef=bass
K: Bb
[V:1] dd/d/ | 
[V:2] FF/F/ | 
[V:3] B,B,/B,/ | 
[V:4] z2 | 
[V:1] dB3/8c/8 | 
[V:2] FD3/8F/8 | 
[V:3] B,z | 
[V:4] z2 | 
[V:1] d/>>e/ f/f/ | 
[V:2] B/>>c/ d/d/ | 
[V:3] B,B/B/ | 
[V:4] z2 | 
[V:1] {/=e2 f2 g2}f2 | 
[V:2] {/^c2 d2 e2}d2 | 
[V:3] B2 | 
[V:4] z2 | 
[V:1] z2 | 
[V:2] DD/D/ | 
[V:3] F,F,/F,/ | 
[V:4] B,,B,,/B,,/ | 
[V:1] z2 | 
[V:2] DB,3/8C/8 | 
[V:3] F,D,3/8F,/8 | 
[V:4] B,,z | 
[V:1] z2 | 
[V:2] D/>>E/ F/F/ | 
[V:3] B,/>>C/ D/D/ | 
[V:4] B,,B,/B,/ | 
[V:1] z2 | 
[V:2] {/=E2 F2 G2}F2 | 
[V:3] {/^C2 D2 =E2}D=C | 
[V:4] A,2 | 
[V:1] dd/d/ | 
[V:2] FF/F/ | 
[V:3] =B,=B,/=B,/ | 
[V:4] _A,A,/A,/ | 
[V:1] d=B3/8c/8 | 
[V:2] F_A3/8G/8 | 
[V:3] =B,F3/8E/8 | 
[V:4] G,2 | 
[V:1] d/>>e/ f/f/ | 
[V:2] F/>>E/ D/D/ | 
[V:3] D/>>C/ =B,/=B,/ | 
[V:4] G,,G,/G,/ | 
[V:1] {/=e2 ^f2 g2}f2 | 
[V:2] D2 | 
[V:3] =B,2 | 
[V:4] ^F,2 | 
[V:1] ^C2 | 
[V:2] {/^F2 G2 A2}G2 | 
[V:3] ^A,2 | 
[V:4] =E,2 | 
[V:1] {/g2 a2 b2}a2 | 
[V:2] e2 | 
[V:3] c2 | 
[V:4] ^F2 | 
[V:1] F2 | 
[V:2] {/A2 =B2 c2}=B2 | 
[V:3] D2 | 
[V:4] ^G,2 | 
[V:1] {/=b2 c'2 d'2}c'2 | 
[V:2] f2 | 
[V:3] e2 | 
[V:4] A2 | 
[V:1] ^FF/F/ | 
[V:2] ^DD/D/ | 
[V:3] A,A,/A,/ | 
[V:4] C,C,/C,/ | 
[V:1] ^F^D3/8=E/8 | 
[V:2] ^D=B,3/8^C/8 | 
[V:3] A,-A,3/8^G,/8 | 
[V:4] =B,,2- | 
[V:1] ^F/>>^G/ A/A/ | 
[V:2] ^D/>>=E/ ^F/F/ | 
[V:3] ^F,/>>=E,/ ^D,/D,/ | 
[V:4] B,,=B,,/=B,,/ | 
[V:1] {/^G2 A2 =B2}A2 | 
[V:2] {/=E2 ^F2 ^G2}F3/=B,/ | 
[V:3] ^D,3/z/ | 
[V:4] =B,,3/z/ | 
[V:1] z2 | 
[V:2] G^F | 
[V:3] =E^A, | 
[V:4] z2 | 
[V:1] zz/ ^c/ | 
[V:2] D^C/^G/ | 
[V:3] =B,^E,/E,/ | 
[V:4] z2 | 
[V:1] ^f^B | 
[V:2] ^C^D | 
[V:3] A,^G, | 
[V:4] z2 | 
[V:1] ^c^^F | 
[V:2] ^G,^A,/^D/ | 
[V:3] =E,^D, | 
[V:4] zz/ E,/ | 
[V:1] zz/ B/ | 
[V:2] _cB | 
[V:3] EF | 
[V:4] _A,D, | 
[V:1] _gf | 
[V:2] _GF | 
[V:3] B,C | 
[V:4] E,A,, | 
[V:1] _dc | 
[V:2] _DC | 
[V:3] F,G, | 
[V:4] B,,=E,, | 
[V:1] _AG- | 
[V:2] F=E | 
[V:3] [C,C][C,C]- | 
[V:4] F,,C,,- | 
[V:1] G{/G2 A2 B2}A | 
[V:2] E_G | 
[V:3] [C,C]E | 
[V:4] C,,z | 
[V:1] {/A2 B2 c2}B{/A2 =B2 c2}=B | 
[V:2] {/C2 _D2 E2}D_A | 
[V:3] {/_G,2 F,2 E,2}F,F | 
[V:4] {/E,2 _D,2 C,2}D,z | 
[V:1] {/=B2 c2 d2}c{/=B2 ^c2 d2}c | 
[V:2] {/D2 E2 F2}EB | 
[V:3] {/_A,2 G,2 F,2}G,G | 
[V:4] {/F,2 E,2 D,2}E,z | 
[V:1] {/^c2 d2 =e2}d{/c2 d2 _e2} d/d/ | 
[V:2] {/E2 F2 G2}Fc/A/ | 
[V:3] {/B,2 A,2 G,2}A,^F/F/ | 
[V:4] {/G,2 F,2 =E,2}F,z | 
[V:1] b[Aa] | 
[V:2] d=e | 
[V:3] G^C | 
[V:4] zz/ A,,/ | 
[V:1] f[=E=e] | 
[V:2] A=B | 
[V:3] D^G, | 
[V:4] D,/z/z/=E,,/ | 
[V:1] cB- | 
[V:2] =EF | 
[V:3] A,D | 
[V:4] A,,D,, | 
[V:1] BA | 
[V:2] ^F2 | 
[V:3] C2 | 
[V:4] ^D,,2 | 
[V:1] zA | 
[V:2] z=E | 
[V:3] zC | 
[V:4] {/^D,,2 =E,,2 F,,2}=E,,2 | 
[V:1] zc | 
[V:2] zE | 
[V:3] zA, | 
[V:4] {/=E,,2 F,,2 G,,2}F,,2 | 
[V:1] ze | 
[V:2] zA | 
[V:3] zc | 
[V:4] {/^E,,2 ^F,,2 G,,2}F,,2 | 
[V:1] zc' | 
[V:2] ze | 
[V:3] zG | 
[V:4] {/^F,,2 G,,2 A,,2}G,,2 | 
[V:1] ze' | 
[V:2] zc | 
[V:3] z_G | 
[V:4] {/G,,2 _A,,2 B,,2}A,,2 | 
[V:1] z_g' | 
[V:2] z[Ee] | 
[V:3] zC | 
[V:4] {/^G,,2 A,,2 B,,2}A,,A, | 
[V:1] F_G/E/ | 
[V:2] _DC/C/ | 
[V:3] B,B,/B,/ | 
[V:4] B,E,/_G,/ | 
[V:1] FF// |]  
[V:2] _DC// |]  
[V:3] B,A,// |]  
[V:4] F,F,,// |]  


